fs/table_freeze_column_and_row_16_regular.svg

<svg viewBox="0 0 16 16" fill="none" xmlns="http://www.w3.org/2000/svg" height="1em" width="1em">
  <path d="M11.5 2C12.8807 2 14 3.11929 14 4.5V11.5C14 12.8807 12.8807 14 11.5 14H4.5C3.11929 14 2 12.8807 2 11.5V4.5C2 3.11929 3.11929 2 4.5 2H11.5ZM3 6V10H5L5 6H3ZM6 6L6 10H10V6H6ZM10 13V11H6V13H10ZM5 13V11H3V11.5C3 12.3284 3.67157 13 4.5 13H5ZM3 4.5V5H11V13H11.5C12.3284 13 13 12.3284 13 11.5V4.5C13 3.67157 12.3284 3 11.5 3H4.5C3.67157 3 3 3.67157 3 4.5Z" fill="#212121"/>
</svg>

<svg viewBox="0 0 16 16" fill="none" xmlns="http://www.w3.org/2000/svg" height="1em" width="1em">
  <path d="M11.5 2A2.5 2.5 0 0 1 14 4.5v7a2.5 2.5 0 0 1-2.5 2.5h-7A2.5 2.5 0 0 1 2 11.5v-7A2.5 2.5 0 0 1 4.5 2h7ZM3 6v4h2V6H3Zm3 0v4h4V6H6Zm4 7v-2H6v2h4Zm-5 0v-2H3v.5A1.5 1.5 0 0 0 4.5 13H5ZM3 4.5V5h8v8h.5a1.5 1.5 0 0 0 1.5-1.5v-7A1.5 1.5 0 0 0 11.5 3h-7A1.5 1.5 0 0 0 3 4.5Z" fill="#212121"/>
</svg>
